X:1
T:Étude No. 3 in G♯ minor "La Campanella"
T:Étude No. 3 in G♯ minor "La Campanella"
T:from Grandes Études de Paganini
T:Niccolò Paganini / Franz Liszt
C:Niccolò Paganini / Franz Liszt
%%score { ( 1 3 ) | ( 2 4 ) }
L:1/8
Q:1/4=108
M:6/8
K:B
V:1 treble nm="鋼琴" snm="Pno."
V:3 treble 
V:2 treble 
V:4 treble 
V:1
"^Allegretto"!p! z2 z z!8va(! .[d'd''].[d'd''] | .[d'd''] z z z .[d'd''].[d'd''] | %2
 .[d'd''] z .[d'd''].[d'd''][Q:1/4=100] z[Q:1/4=92] .[d'd''] | %3
[Q:1/4=84].[d'd''][Q:1/4=76] !fermata!z[Q:1/4=108]!p! .d/.d'/ .d'/.d''/.d'/.d''/.c'/.d''/ | %4
 .b/.d''/.b/.d''/.a/.d''/ .g/.d''/.^^f/.d''/.g/.d''/ | a d!8va)! d e d c | B B A G ^^F G | %7
 A D x!8va(! .d'/.d''/.d'/.d''/.c'/.d''/ | .b/.d''/.b/.d''/.a/.d''/ .g/.d''/.^^f/.d''/.g/.d''/ | %9
 a d!8va)! d e d .d |!8va(! .d/.d'/ .g/.b/ .d'/.d''/ .d/.d'/ .^^f/.a/ .d'/.d''/!8va)! | %11
 z2"_sempre staccato e piano"!8va(! .d/.d'/ .d''/.d'/.d''/.d'/.d''/.c'/ | %12
{/c'} .b/.d''/.b/.d''/.a/.d''/{/a} .g/.d''/.^^f/.d''/.g/.d''/ | a d d!8va)! e d c | B B A G ^^F G | %15
 A D x!8va(! .d'/.d''/.d'/.d''/.c'/.d''/ | %16
{/c'} .b/.d''/.b/.d''/.a/.d''/{/a} .g/.d''/.^^f/.d''/.g/.d''/ | a d d e d c | %18
 .d/.d'/ .g/.b/ !>!.d'/.d''/ .d/.d'/ .^^f/.a/ !>!.d'/.d''/!8va)! | %19
[I:staff +1] .G,,/.B,/[I:staff -1].D/.G/.d/.g/ x/ x/ x2 || %20
 z2!p![I:staff +1] .B/[I:staff -1].[^^FA]/[I:staff +1] .B/[I:staff -1].[^F=A]/[I:staff +1] .B/[I:staff -1].[^EG]/[I:staff +1] .B/[I:staff -1].[=E=G]/ | %21
 (c/4B/4A/4B/4).F/.f'/.B/.f'/ (d/4c/4^B/4c/4).F/.f'/.c/.f'/ | %22
 (e/4d/4^^c/4d/4).B/.f'/[I:staff +1] .d/[I:staff -1].[Bc]/[I:staff +1] .d/[I:staff -1].[A^c]/[I:staff +1].d/[I:staff -1].[=A^B]/[I:staff +1].d/[I:staff -1].[G=B]/ | %23
 (^e/4d/4^^c/4d/4).A/.a'/.d/.a'/ (f/4e/4^^d/4e/4).A/.a'/.e/.a'/ | %24
 (g/4f/4^e/4f/4).d/.a'/[I:staff +1] .f/[I:staff -1].[^^ce]/[I:staff +1] .f/[I:staff -1].[^c=e]/[I:staff +1].f/[I:staff -1].[^Bd]/[I:staff +1].f/[I:staff -1].[=B=d]/ | %25
 (g/4f/4^e/4f/4).c/.c''/.f/.c''/ (a/4g/4^^f/4g/4).c/.c''/.g/.c''/ | %26
!8va(! .a/.b/c'.b/.a/ .g/.a/b.a/.g/ | .f/.g/a.g/.f/ .^e/.f/g.d/.e/ | %28
 f/[af']/!8va)! z z !^!G/g/!8va(!.g'/g/.g'/^f/ | .g'/e/.f''/g/.e''/g/ .d''/g/.c''/g/.d''/g/ | %30
 .e''/g/.c''/g/!8va)! z !^!F/f/!8va(!.f'/f/.f'/e/ | .f'/d/.e''/f/.d''/f/ .c''/f/.b'/f/.c''/f/ | %32
 .d''/f/.b'/f/!8va)! z .!^!D/.d/.d'/.d/.d'/.^^c/ | .d'/.^c/.d'/.c/.d'/.B/ e/a/c/e/B/^e/ | %34
 A/d/^^f/d/ z!8va(! .!^!d/.d'/.d''/.d'/.d''/.^^c'/ | %35
!<(! .d''/.^c'/.d''/.c'/.d''/.b/!<)!!mp! e'/=a'/c'/e'/b/^e'/ | %36
 .[^a^^f']/.[d'a']/ x2 !>!.d''/.d'/ x2 |"_cresc." !>!.d''/.d'/ x2 !>!.d''/.d'/ x !>!.d''/.d'/ | %38
 x !>!.d''/.d'/ x .d''/!<(!.^^g/.d''/.a/.d''/.b/ | %39
 .d''/.^b/.d''/.c'/.d''/.^^c'/ .d''/.d'/.d''/.d'/.d''/.d'/!<)! | %40
!mf!"_stacc. sempre" .d''/.d'/.d''/.d'/!>(!.d''/.d'/ .d''/.d'/.d/.d'/.d''/.d'/!>)! | %41
!p!!>(! .d/.d'/.d''/.d'/.d/.d'/!>)!!pp! .d''/.d'/.d/.d'/.d''/.d'/ | %42
 .d/.d'/.d''/.d'/.d/.d'/ .d''/.d'/.d/.d'/.d''/.d'/ | %43
 .d/.d'/.d''/.d'/.d/.d'/ .d''/.d'/.d/.d'/.d''/.d'/ | %44
 .d/.d'/.d''/.d'/.d/.d'/ .d''/.d'/.d/.d'/.d''/.d'/ | %45
 .d/.d'/.d''/.d'/.d/.d'/ .d''/.d'/.d/.d'/.d''/.d'/ | %46
 .d/.d'/.d''/.d'/.d/.d'/ .d''/.d'/.d/.d'/.d''/.d'/ | %47
 .d/.d'/.d''/.d'/.d/.d'/ .e/.d'/.d/.d'/.c/.d'/ | %48
"^poco rit."[Q:1/4=100] d/d'/.g/[Q:1/4=92].b/!>!d'/d''/[Q:1/4=84] d/d'/.^^f/[Q:1/4=76].a/!>!d'/d''/!8va)! | %49
[Q:1/4=68] z2[Q:1/4=100]!8va(! (3d/"_"d'/d'/!p! (3d'/"_"d'/d''/ (3d'/"_"d'/d''/ (3c'/"_"c'/c''/ | %50
 (3b/b/b'/ (3b/b/b'/ (3a/a/a'/ (3g/g/g'/ (3^^f/f/^^f'/ (3g/g/g'/ | %51
 (3a/a/a'/ (3d/d/d'/ (3d/d/d'/!8va)! (3e/e/e'/ (3d/d/d'/ (3c/c/c'/ | %52
 (3B/B/b/ (3B/B/b/ (3A/A/a/ (3G/G/g/ (3^^F/F/^^f/ (3G/G/g/ | %53
 (3A/A/a/ (3D/D/d/(3d/d/d/!8va(! (3d'/d'/d''/ (3d'/d'/d''/ (3c'/c'/c''/ | %54
 (3b/b/b'/ (3b/b/b'/ (3a/a/a'/ (3g/g/g'/ (3^^f/f/^^f'/ (3g/g/g'/ | %55
 (3a/a/a'/!<(! (3d/d/d'/ (3d/d/d'/!mp! (3e/!<)!!>(!e/e'/ (3d/d/d'/ (3c/c/c'/!>)! | %56
!p! (3d/d/d'/ (3e/e/d'/ (3^e/e/d'/ (3f/f/d'/ (3^^f/f/d'/ (3g/g/d'/ | %57
 (3^^g/g/d'/ (3a/a/d'/ (3b/b/d'/ (3^b/b/d'/ (3c'/c'/d'/ (3^^c'/c'/d'/ | %58
[Q:1/4=96] (3d'/d'/d''/[Q:1/4=92] (3e'/e'/d''/[Q:1/4=88]!>(! (3^e'/e'/d''/[Q:1/4=84] (3f'/f'/d''/[Q:1/4=80] (3^^f'/f'/d''/[Q:1/4=76] (3g'/g'/d''/!8va)!!>)! | %59
!pp! z[Q:1/4=14] !fermata!z ||[Q:1/4=96]"^ten." B .B/.B/.B/.B/.B/.B/ | %61
!p! (c/4B/4A/4B/4) F/4f/4f/4f/4 B/4b/4b/4b/4 c/4c'/4c'/4c'/4 f/4f'/4f'/4f'/4!8va(! (3c'/"^"[f'c'']/[f'c'']/ | %62
 (3d'/"^"[f'd'']/[f'd'']/ x/!8va)! z/"^ten." d .d/.d/.d/.d/.d/.d/ | %63
 (^e/4d/4^^c/4d/4) A/4a/4a/4a/4 d/4d'/4d'/4d'/4 e/4^e'/4e'/4e'/4!8va(! a/4a'/4a'/4a'/4 (3e'/"^"[a'^e'']/[a'e'']/ | %64
 (3f'/"^"[a'f'']/[a'f'']/ x/!8va)! z/"^ten." f .f/.f/.f/.f/.f/.f/ | %65
 (g/4f/4^e/4f/4) c/4c'/4c'/4c'/4 f/4f'/4f'/4f'/4!8va(! g/4g'/4g'/4g'/4 (3c'/"^"[g'c'']/[g'c'']/(3[g'c'']/"^"[g'c'']/[g'c'']/ | %66
 c''/4d''/4c''/4d''/4c''/4d''/4c''/4d''/4c''/4d''/4c''/4d''/4 b'/4c''/4b'/4c''/4b'/4c''/4b'/4c''/4b'/4c''/4b'/4c''/4 | %67
 a'/4b'/4a'/4b'/4a'/4b'/4a'/4b'/4a'/4b'/4a'/4b'/4 g'/4a'/4g'/4a'/4g'/4a'/4g'/4a'/4g'/4^d'/4=e'/4^e'/4 | %68
[Q:1/4=94] f'/4g'/4f'/4g'/4 f/4f'/4g'/4f'/4 ^^f/4^^f'/4g'/4f'/4 g/4g'/4=a'/4(g'/4{/a'} Tg'2) | %69
 g'/4=a'/4g'/4a'/4g'/4a'/4g'/4a'/4g'/4a'/4g'/4a'/4g'/4a'/4g'/4a'/4g'/4a'/4g'/4a'/4g'/4a'/4g'/4a'/4 | %70
 g'/4=a'/4g'/4a'/4 g'/ z/ =g/4=g'/4=a'/4g'/4 f/4f'/4^g'/4f'/4{/g'} Tf'2 | %71
 f'/4g'/4f'/4g'/4f'/4g'/4f'/4g'/4f'/4g'/4f'/4g'/4f'/4g'/4f'/4g'/4f'/4g'/4f'/4g'/4f'/4g'/4f'/4g'/4 | %72
 f'/4g'/4f'/4g'/4 f'/ z/ !^!^^c/4^^c'/4d'/4c'/4 !>!d/4d'/4e'/4d'/4e'/4d'/4e'/4d'/4e'/4d'/4e'/4d'/4 | %73
 (16:12:16e'/4d'/4^^c'/4d'/4e'/4!<(!^e'/4f'/4"_"^^f'/4g'/4=a'/4^a'/4b'/4^b'/4c''/4^^c''/4d''/4!<)!!mp!(15:12:15e''/4f''/4e''/4d''/4c''/4^c''/4b'/4"_"=b'/4a'/4^^g'/4^g'/4f'/4^f'/4e'/4=e'/4 | %74
[Q:1/4=86] d'!8va)![Q:1/4=94]!p! .A/4a/4b/4a/4 .^^c/4^^c'/4d'/4c'/4 .d/4d'/4e'/4d'/4e'/4d'/4e'/4d'/4e'/4d'/4e'/4d'/4 | %75
[Q:1/4=86]!8va(! (16:12:16e'/4d'/4^^c'/4d'/4e'/4!<(!^e'/4f'/4"_"^^f'/4g'/4=a'/4^a'/4b'/4^b'/4c''/4^^c''/4d''/4!<)!!mp!(15:12:15e''/4f''/4e''/4d''/4c''/4^c''/4b'/4"_"=b'/4a'/4^^g'/4^g'/4f'/4^f'/4e'/4=e'/4 | %76
 (17:12:17d'/4e'/4d'/4^^c'/4d'/4e'/4^e'/4f'/4"_"^^f'/4g'/4=a'/4^a'/4b'/4^b'/4c''/4^^c''/4d''/4(15:12:15e''/4f''/4e''/4d''/4c''/4^c''/4b'/4"_"=b'/4a'/4^^g'/4^g'/4f'/4^f'/4e'/4=e'/4 | %77
 (17:12:17d'/4e'/4!<(!d'/4^^c'/4d'/4e'/4^e'/4f'/4"_"^^f'/4g'/4=a'/4^a'/4b'/4^b'/4c''/4^^c''/4d''/4!<)! | %78
"^quasi cadenza"!mf! e''/4f''/4e''/4d''/4^^c''/4d''/4c''/4^c''/4^b'/4c''/4b'/4=b'/4a'/4b'/4a'/4=a'/4g'/4a'/4g'/4^^f'/4^f'/4"_dim."=g'/4f'/4^e'/4=e'/4f'/4e'/4d'/4=d'/4^d'/4=d'/4c'/4^b/4c'/4b/4=b/4!8va)! | %79
!mp! ^a/4b/4a/4=a/4g/4a/4g/4^^f/4^f/4=g/4f/4^e/4=e/4f/4e/4d/4=d/4^d/4=d/4c/4^B/4c/4B/4=B/4A/4B/4A/4=A/4G/4A/4G/4^^F/4^F/4^^F/4^F/4^E/4 | %80
 =E/4^^C/4E/4D/4^E/4=E/4F/4^E/4^^F/4^F/4G/4^^F/4=A/4G/4^A/4^^G/4B/4A/4^B/4=B/4c/4^B/4^^c/4^c/4 d/4x/4e/4x/4"_cresc."^e/4x/4f/4x/4^^f/4x/4g/4x/4=a/4x/4^a/4x/4b/4x/4^b/4x/4c'/4x/4^^c'/4 x/4 | %81
!8va(! d'/4x/4e'/4x/4^e'/4x/4f'/4x/4^^f'/4x/4g'/4x/4=a'/4x/4^a'/4x/4b'/4x/4^b'/4x/4c''/4x/4^^c''/4 x/4 ^d''/4x/4e''/4x/4d''/4x/4e''/4x/4d''/4x/4e''/4 x/4 ^d''/4x/4e''/4x/4d''/4x/4e''/4x/4d''/4x/4e''/4 x/4 | %82
!ff!!>(! !^!Td''3 !^!Td''3!>)! | %83
 !^!Td''3 d''/4e''/4d''/4e''/4d''/4e''/4d''/4e''/4d''/4e''/4d''/4e''/4 | %84
 d''/4e''/4d''/4e''/4d''/4e''/4d''/4e''/4d''/4e''/4d''/4e''/4 d''/4e''/4d''/4e''/4d''/4e''/4d''/4e''/4d''/4e''/4d''/4e''/4 | %85
 d''/4e''/4d''/4e''/4d''/4e''/4d''/4e''/4d''/4e''/4d''/4e''/4 d''/4e''/4d''/4e''/4d''/4e''/4d''/4e''/4d''/4e''/4d''/4e''/4 | %86
 d''/4e''/4d''/4e''/4d''/4e''/4d''/4e''/4d''/4e''/4d''/4e''/4 d''/4e''/4d''/4e''/4d''/4e''/4d''/4e''/4d''/4e''/4d''/4e''/4 | %87
 d''/4e''/4d''/4e''/4d''/4e''/4d''/4e''/4d''/4e''/4d''/4e''/4 d''/4e''/4d''/4e''/4d''/4e''/4d''/4e''/4d''/4e''/4d''/4e''/4 | %88
"_sempre piano"[Q:1/4=96] d''/4e''/4d''/4d'/4d'/4e'/4d'/4d/4(3d'/"_"e'/d'/[Q:1/4=98] d''/4e''/4d''/4d'/4d'/4e'/4d'/4d/4(3d'/"_"e'/d'/ | %89
 d''/4e''/4d''/4d'/4d'/4e'/4d'/4d/4(3d'/"_"e'/d'/"_smorz." d''/4e''/4d''/4d'/4d'/4e'/4d'/4d/4(3d'/"_"e'/d'/ | %90
!pp! d''/4e''/4d''/4d'/4 x x d''/4e''/4d''/4d'/4 x x!8va)! | %91
 z2[Q:1/4=94]!<(!!8va(! d d' d' c'!<)! |!p! b b a g ^^f g |"_simile" a d d!8va)! e d c | %94
 B B A G ^^F G | A D d!8va(! d' d' c' |"_espressivo" ^b b =a g g f | e!<(! c d e!<)!!mp! d c | %98
!p![Q:1/4=60] d/8d'/8e/8^e/8[Q:1/4=62]f/8^^f/8g/8=a/8[Q:1/4=64]^a/8b/8^b/8c'/8[Q:1/4=66]^^c'/8d'/8e'/8^e'/8[Q:1/4=68]f'/8^^f'/8g'/8=a'/8[Q:1/4=70]^a'/8b'/8^b'/8c''/8[Q:1/4=68]!>(!(22:12:22^^c''/4d''/4f''/4=e''/4^c''/4[Q:1/4=66]a'/4^^f'/4^^c'/4d'/4^f'/4"_"[Q:1/4=64]=e'/4^c'/4a/4!8va)!f/4=e/4c/4[Q:1/4=62]A/4^^F/4^E/4C/4[Q:1/4=60]A,/4^^F,/4!>)! | %99
!pp![I:staff +1] (6:4:6(G,,/4D,/4"_"G,/4[I:staff -1]B,/4D/4G/4)[I:staff +1](6:4:6(B/4d/4"_"g/4!8va(![I:staff -1]b/4d'/4b'/4) g'!8va)! !fermata!z/[Q:1/4=112]"^Più mosso"!<(! .[Bb]/.[Bb]/.[Bb]/.[Bb]/.[Bb]/!<)! | %100
!mp!"_staccato" .!^!b/F/.!^![Bf]/F/.!^!b/F/ .!^!c'/F/.!^![cf]/F/.!^!c'/F/ | %101
 d'/.F/.d/.b/.d'/.b'/!pp! z/!<(! .[dd']/.[dd']/.[dd']/.[dd']/.[dd']/!<)! | %102
!mp! .!^!d'/A/.!^![da]/A/.!^!d'/A/ .!^!^e'/A/.!^![^ea]/A/.!^!e'/A/ | %103
 f'/.A/.f/.d'/!8va(!.f'/.d''/!8va)!!pp! z/!<(! .[ff']/.[ff']/.[ff']/.[ff']/.[ff']/!<)! | %104
!mp! .!^!f'/c/.!^![fc']/c/.!^!f'/c/ .!^!g'/c/.!^![gc']/c/.!^!g'/c/ | %105
!8va(! [c'f'a']/[c'g'b']/[c'a'c'']/[c'a'c'']/[c'g'b']/[c'f'a']/ [bd'g']/[c'd'a']/[d'b']/[d'b']/[c'd'a']/[bd'g']/ | %106
 [ac'f']/[bc'g']/[c'a']/[c'a']/[bc'g']/[ac'f']/ [gc'^e']/[ac'f']/[bc'g']/[bc'g']/[fc'd']/[gc'e']/ | %107
 !wedge![fc'f']!8va)! z z x x2 | %108
!8va(! .[gg']!p! [f'f'']/[f'f'']/[e'e'']/[e'e'']/[d'd'']/[d'd'']/[c'c'']/[c'c'']/[d'd'']/[d'd'']/ | %109
 [e'e'']!8va)! z z x x2 | %110
 .[ff']!p!!8va(! [e'e'']/[e'e'']/[d'd'']/[d'd'']/[c'c'']/[c'c'']/[bb']/[bb']/[c'c'']/[c'c'']/ | %111
 [d'd'']!8va)! z z x[K:bass] x2 | %112
[K:treble]!p! .[dd']!<(! [dd']/[dd']/[dd']/[dd']/!<)!!mp! [ee']/[dd']/[cc']/[Bb]/[^A^a]/[Gg]/ | %113
 [^^F^^f] z z x[K:bass] x2 | %114
[K:treble]!p! .[dd']!<(!!8va(! [d'd'']/[d'd'']/[d'd'']/[d'd'']/!<)!!mp! [=e'=e'']/[d'd'']/[c'c'']/[bb']/[aa']/[gg']/!8va)! | %115
 [^^f^^f']/[^f^f']/[^e^e']/[=e=e']/[^^c^^c']/[dd']/"_cresc." !>![ee']/[dd']/[^c^c']/[Bb]/[Aa]/[Gg]/ | %116
 [^^F^^f]/[^F^f]/[^E^e]/[=E=e]/[^^C^^c]/[Dd]/ [Ee]/[Dd]/[^C^c]/[B,B]/[A,A]/[G,G]/ | %117
[K:bass] [^^F,^^F]/[^F,^F]/[^E,^E]/[=E,=E]/[^^C,^^C]/[D,D]/ [E,E]/[E,D]/[E,^C]/[E,B,]/[^E,A,]/[E,G,]/ | %118
 ^^F,[Q:1/4=128] [^^C,^^C]/[I:staff +1]^^C,/[I:staff -1][D,D]/[I:staff +1]D,/[I:staff -1][K:treble][^^G,^^G]/[I:staff +1]^^G,/[I:staff -1][A,A]/[I:staff +1]A,/[I:staff -1][^^C^^c]/[I:staff +1][C,^^C]/ | %119
[I:staff -1] [Dd]/[I:staff +1][D,D]/[I:staff -1][^^G^^g]/[I:staff +1][^^G,^^G]/[I:staff -1][Aa]/[I:staff +1][A,A]/[I:staff -1][^^c^^c']/[I:staff +1][^^C^^c]/[I:staff -1][dd']/[I:staff +1][Dd]/[I:staff -1][g^^g']/[I:staff +1][G^^g]/ | %120
!8va(![I:staff -1] [aa']/[I:staff +1]x/[I:staff -1][^^c'^^c'']/[I:staff +1]x/[I:staff -1][d'd'']/[I:staff +1]x/[I:staff -1][c'c'']/[I:staff +1]x/[I:staff -1][d'd'']/[I:staff +1]x/[I:staff -1][c'c'']/[I:staff +1]x/ | %121
[I:staff -1] [d'd'']/[I:staff +1]x/"_cresc."[I:staff -1][d'd'']/[I:staff +1]x/[I:staff -1][d'd'']/[I:staff +1]x/[I:staff -1][d'd'']/[I:staff +1]x/[I:staff -1][d'd'']/[I:staff +1]x/[I:staff -1][d'd'']/[I:staff +1]x/ | %122
[I:staff -1] [d'd'']/[I:staff +1]x/[I:staff -1][d'd'']/[I:staff +1]x/[I:staff -1][d'd'']/[I:staff +1]x/[I:staff -1][d'd'']/[I:staff +1]x/[I:staff -1][d'd'']/[I:staff +1]x/[I:staff -1][d'd'']/[I:staff +1]x/ | %123
!ff![Q:1/4=120]!>(![I:staff -1] [d'd'']/[d'd'']/[d'd'']/[d'd'']/[d'd'']/[d'd'']/ [d'd'']/[d'd'']/[d'd'']/[d'd'']/[d'd'']/[d'd'']/ | %124
 [d'd'']/[d'd'']/[d'd'']/[d'd'']/[d'd'']/[d'd'']/!>)! [d'd'']/[d'd'']/[d'd'']/[d'd'']/[c'c'']/[c'c'']/ | %125
!mp! [bb']/[bb']/[bb']/[bb']/[aa']/[aa']/ [gg']/[gg']/[^^f^^f']/[ff']/[gg']/[gg']/!8va)! | %126
 [aa']/[aa']/[dd']/[dd']/[dd']/[dd']/ [ee']/[ee']/[dd']/[dd']/[cc']/[cc']/ | %127
 [Bb]/[Bb]/[Bb]/[Bb]/[Aa]/[Aa]/ [Gg]/[Gg]/[^^F^^f]/[Ff]/[Gg]/[Gg]/ | %128
 [Aa]/[Aa]/[Dd]/[Dd]/[dd']/[dd']/!8va(! [d'd'']/[d'd'']/[d'd'']/[d'd'']/[c'c'']/[c'c'']/ | %129
 [^b^b']/[bb']/[bb']/[bb']/[=a=a']/[aa']/!8va)! [gg']/[gg']/[gg']/[gg']/[ff']/[ff']/ | %130
 [ee']!p!"_crescendo molto" [E=Ac]/[EAc]/[EAd]/[EAd]/[EAe]/[EAe]/[EAd]/[EAd]/[EAc]/[EAc]/ | %131
[Q:1/4=112] [DGBd]/[Ee]/[^E^e]/[Ff]/[^^F^^f]/[Gg]/[=A=a]/[^A^a]/[Bb]/[^B^b]/[cc']/[^^c^^c']/ | %132
[Q:1/4=92]!8va(! [dfad']/[Q:1/4=112][ee']/[^e^e']/[ff']/[^^f^^f']/[gg']/[=a=a']/[^a^a']/[bb']/[c'c'']/[^^c'^^c'']/[Q:1/4=30][d'd'']/!8va)! | %133
!ff![Q:1/4=120][Q:1/4=120]"^Animato" [B,DG] z [Bdb] [Ada]/[Bb]/[cc'][Bdb]/[Aa]/ | %134
 [Bdb]/[cc']/[dd'][cc']/[Bb]/ [Ada]/[Bb]/[cc'][Bdb]/[Aa]/ | %135
 [Bdb]/[Aa]/[Gg]!8va(! [bd'b'] [ad'a']/[bb']/[c'c''][bd'b']/[aa']/ | %136
 [bd'b']/[c'c'']/[d'd''][c'c'']/[bb']/ [ad'a']/[bb']/[c'c''][bd'b']/[aa']/ | %137
 [bd'b']/[aa']/[gg']!8va)! [DBd] [DAd]/[DBd]/[Dcd][DBd]/[DAd]/ | %138
 [DBd]/[DAd]/ [DGd] !>!!wedge![dgd'] [DAd]/[DBd]/[Dcd][DBd]/[DAd]/ | %139
 [DBd]/[DAd]/ [DGd] !>!!wedge![dgd'] [DBd]/[DAd]/ [DGd] !>!!wedge![gd'g'] | %140
 [DBd]/[DAd]/ [DGd]!8va(! !>!!wedge![bd'b']!8va)! [DBd]/[DAd]/[Q:1/4=80] [DGd][Q:1/4=100]!8va(! !>![d'g'd'']- | %141
 [d'g'd''][Q:1/4=120][d'g'd''][d'g'd''][d'g'd''][d'g'd''][d'g'd''] | %142
[Q:1/4=100] [d'g'd'']!8va)! z z [B,DG] z z |[Q:1/4=80] [gbd'g']6 |] %144
V:2
 z!ped! .[Dd].[Dd] .[Dd] z2 | z!ped-up!!ped! .[Dd].[Dd] .[Dd] z2 | %2
 z!ped-up!!ped! .[Dd] z z!ped-up!!ped! .[Dd] z | !fermata!z2!ped-up! z z2 z | %4
 !arpeggio!.[G,DB] z z !arpeggio!.[B,Gd] z z | !arpeggio!.[DA^^f] z z !arpeggio!.[^^FA] z z | %6
 .G z z !arpeggio!.[B,^^C^E] z z | !arpeggio!.[D^^F] z z z2 z | %8
 !arpeggio!.[G,DB] z z !arpeggio!.[B,Gd] z z | !arpeggio!.[DA^^f] z z !arpeggio!.[^^FA] z z | %10
 .[GB] z z .[D^^Fc] z2 | .G,/.D/.B/.g/!ped! z z2 z!ped-up! | %12
[K:bass]!ped! .G,,.[D,B,] z!ped-up!!ped! .B,,.[G,D] z!ped-up! | %13
!ped! .D,.[A,^^F] z!ped-up![K:treble]!ped! .[^^FA].[FA] z!ped-up! | %14
!ped! .G.G z!ped-up!!ped! .[B,^^C^E].[B,CE] z!ped-up! | %15
[K:bass]!ped! !arpeggio!.[D,^^F] z z4!ped-up! | %16
!ped! .G,,.[D,B,] z!ped-up!!ped! .B,,.[G,D] z!ped-up! | %17
!ped! .D,.[A,^^F] z!ped-up![K:treble]!ped! [CGA][DGA][EGA]!ped-up! | %18
!ped! [DGB] z z!ped-up![K:bass]!ped! !arpeggio![D,C^^F] z z!ped-up! | %19
!ped! x/ x/ x2[K:treble] .b/.d'/.g'/ z/ z!ped-up! || z2 x/ x/ x/ x/ x/ x/ x/ x/ | %21
[K:bass] z .[B,D].[F,DF] z .[A,E].[F,EF] | z [B,D][K:treble] x/ x/ x/ x/ x/ x/ x/ x/ | %23
 z .[DF].[A,FA] z .[^^CG].[A,GA] | z [DF][K:treble] x/ x/ x/ x/ x/ x/ x/ x/ | %25
 z .[FA].[CAc] z .[^EB].[CBc] | .f/.g/a.g/.f/ .B/.c/d.c/.B/ | .A/.B/c.B/.A/ .G/.A/B.F/.G/ | %28
 .A .F/.f/.^^F/.^^f/ z .[EG].[DG] | .[CG] .d.c .^B.A.B | .c.e .=G/.=g/ z .[DF].[CF] | %31
 .[B,F] .c.B .A.G.A | .B.d .^^C/.^^c/ z .[^^F,D].[G,^E] | .[A,^^F].[A,F].[B,G] .[CA] z .[^^C^E] | %34
 .[D^^F] z .^^c/.^^c'/ z .[Fd].[G^e] | .[A^^f].[Af].[Bg] .[c=a] z .[^^c^e] | %36
 .[d^^f]!p!!<(! !>!.^^c/.^^c'/.d/.d'/!<)!!mp! x!p!!<(! !>!.d/.d'/.e/.e'/!<)! | %37
!mp! x!p!!<(! .e/.e'/.^e/.^e'/!<)!!mp! x .f/.f'/ x | .^^f/.^^f'/ x .g/.g'/ z2 z | z6 | z6 | %41
!ped! z2!mp! .D .d[I:staff -1].d[I:staff +1].c!ped-up! | %42
!ped! .B.B.A!ped-up!!ped! .G.^^F.G!ped-up! |!ped! .A.D .D!ped-up!!ped! .E.D.C!ped-up! | %44
[K:bass]!ped! .B,.B,.A,!ped-up!!ped! .G,.^^F,.G,!ped-up! | %45
!ped! (A,.D,/) z/ z3/4!ped-up![K:treble]!ped! (D/4 .d)[I:staff -1].d[I:staff +1].c!ped-up! | %46
!ped! .B.B.A!ped-up!!ped! .G.^^F.G!ped-up! |!ped! .A.D z!ped-up!!ped! [CGA][DGA][EGA]!ped-up! | %48
!ped! [DGB] z z!ped-up!!ped! [D^^Fc] z z!ped-up! |!ped! .G,/.D/.B/.g/!ped-up! z z2 z | %50
[K:bass]!ped! !>!G,, [D,B,][D,B,]!ped-up!!ped! !>!B,, [G,D][G,D]!ped-up! | %51
!ped! !>!D, [A,^^F][A,F]!ped-up![K:treble]!ped! !>!^^F, [DA][DA]!ped-up! | %52
!ped! !>!G, [DG][DG]!ped-up!!ped! !>!B, [^^C^E][CE]!ped-up! | %53
[K:bass]!ped! !>!D, [A,^^F] z!ped-up! z2 z | %54
!ped! !>!G,, [D,B,][D,B,]!ped-up!!ped! !>!B,, [G,D][G,D]!ped-up! | %55
!ped! !>!G,,[K:treble] .[A,^^F].[FA] .[GB].[^FA].[EG]!ped-up! |!ped! [DGB] z z z2 z!ped-up! | %57
[K:bass]!ped! !arpeggio![D,C^^F] z z z2 z!ped-up! |!ped! !arpeggio![G,,D,B,G] z z z2 z | %59
 z !fermata!z!ped-up! ||[K:treble] .G/.=G/.F/.^E/.=E/.D/.=D/.C/ | %61
!ped! z[K:bass] .[B,^D].[F,DF]!ped-up!!ped! z .[A,E].[F,A,F]!ped-up! | %62
!ped! .B,,[F,D]/ z/!ped-up![K:treble] (B .A/).^^G/.^G/.^^F/.^F/.^E/ | %63
!ped! z .[DF].[A,FA]!ped-up!!ped! z .[^^CG].[A,CA]!ped-up! | %64
[K:bass]!ped! .D,[A,F]/ z/!ped-up![K:treble] .d/.^^c/.^c/.^B/.=B/.A/.^^G/.^G/ | %65
!ped! z .[FA].[CAc]!ped-up!!ped! z .[^EB].[CEc]!ped-up! | %66
!ped! !^!F .[f^a]/.[gb]/ .[ac']!ped-up!!ped! !^!B, .[Bg]/.[ca]/ .[db]!ped-up! | %67
!ped! !^!C .[Af]/.[Bg]/ .[ca]!ped-up!!ped! !^!C .[G^e]/.[Af]/ .[Bg]!ped-up! | %68
 !arpeggio!!wedge![Fca] z z z !arpeggio!!wedge![=Eg]!arpeggio!!wedge![D^f] | %69
 !arpeggio!!wedge![Ce] .d'.c' .^b.^a.b | %70
 .c' e'/ z/ z z !arpeggio!!wedge![Df]!arpeggio!!wedge![Ce] | !arpeggio!!wedge![B,d] .c'.b .a.g.a | %72
 .b d'/ z/ z!ped! z .[D^^Fd].[^EG^^c]!ped-up! | %73
!ped! .[^^FA^c] z z!ped-up!!ped! .[G=Be] z z!ped-up! | %74
 !arpeggio![D^^f] z z!ped! z .[D^^Fd].[^EG^^c]!ped-up! | %75
!ped! .[^^FA^c] z z!ped-up!!ped! .[GBe] z z!ped-up! | %76
!ped! !arpeggio![DA^^f] z z!ped-up!!ped! !arpeggio![G,B] z z!ped-up! | %77
[K:bass]!ped! !arpeggio![D,^^F] z z!ped-up! |!ped! !arpeggio![G,,B,] x x x x4 x!ped-up! | %79
!ped! x8 x!ped-up! | %80
!ped! !arpeggio![A,C]2 z4!ped-up!!ped! x/4[I:staff -1] ^^c/4[I:staff +1]x/4[I:staff -1]d/4[I:staff +1]x/4[I:staff -1]=e/4[I:staff +1]x/4[I:staff -1]^e/4[I:staff +1]x/4[I:staff -1]^f/4[I:staff +1]x/4[I:staff -1]^^f/4[I:staff +1]x/4[I:staff -1]g/4[I:staff +1]x/4[I:staff -1]=a/4[I:staff +1]x/4[I:staff -1]^a/4[I:staff +1]x/4[I:staff -1]=b/4[I:staff +1]x/4[I:staff -1]^b/4[I:staff +1]x/4[I:staff -1]^c'/4!ped-up! | %81
!ped!!8va(![I:staff +1] x/4[I:staff -1] ^^c'/4[I:staff +1]x/4[I:staff -1]d'/4[I:staff +1]x/4[I:staff -1]=e'/4[I:staff +1]x/4[I:staff -1]^e'/4[I:staff +1]x/4[I:staff -1]^f'/4[I:staff +1]x/4[I:staff -1]^^f'/4[I:staff +1]x/4[I:staff -1]g'/4[I:staff +1]x/4[I:staff -1]=a'/4[I:staff +1]x/4[I:staff -1]^a'/4[I:staff +1]x/4[I:staff -1]=b'/4[I:staff +1]x/4[I:staff -1]^b'/4[I:staff +1]x/4[I:staff -1]^c''/4!ped-up!!ped![I:staff +1] x/4[I:staff -1] ^^c''/4[I:staff +1]x/4[I:staff -1]c''/4[I:staff +1]x/4[I:staff -1]c''/4[I:staff +1]x/4[I:staff -1]c''/4[I:staff +1]x/4[I:staff -1]c''/4[I:staff +1]x/4[I:staff -1]c''/4!ped-up!!ped![I:staff +1] x/4[I:staff -1] c''/4[I:staff +1]x/4[I:staff -1]c''/4[I:staff +1]x/4[I:staff -1]c''/4[I:staff +1]x/4[I:staff -1]c''/4[I:staff +1]x/4[I:staff -1]c''/4[I:staff +1]x/4[I:staff -1]c''/4!8va)!!ped-up! | %82
!ped![I:staff +1] z6!ped-up!!ped!!ped-up! | z2[K:treble]!p! .d .d' z .c' | %84
!ped! .b.b.a!ped-up!!ped! .g.^^f.g!ped-up! |!ped! (ad) .d!ped-up!!ped! .e.d.c!ped-up! | %86
!ped! .[GB].[GB].[^FA]!ped-up!!ped! .G.^^F.G!ped-up! | %87
!ped! (AD) z/ (D/!ped-up!!ped! .d).d.c!ped-up! |!ped! .B.B.A!ped-up!!ped! .G.^^F.G!ped-up! | %89
!ped! (AD) .D!ped-up!!ped! .G.^F.E!ped-up! | %90
!ped! !wedge!D .[Bg]/.[db]/[I:staff -1]!wedge![gd']!ped-up!!ped![I:staff +1] !wedge!D .[A^^f]/.[ca]/[I:staff -1]!wedge![^^fd']!ped-up! | %91
!ped![I:staff +1] (G,{DB}g/) z/!ped-up! z z2 z | %92
[K:bass]!ped! !>!!wedge![G,,,G,,] !wedge![D,B,D]!wedge![G,B,D]!ped-up!!ped! !>!!wedge![B,,,B,,] !wedge![D,B,D]!wedge![G,B,D]!ped-up! | %93
!ped! !>!!wedge![D,,D,] !wedge![^^F,D^^F]!wedge![A,DF]!ped-up!!ped! !>!!wedge!^^F,,[K:treble] !wedge![CDA]!wedge![A,DA]!ped-up! | %94
[K:bass]!ped! !>!!wedge!G,, !wedge![DG]!wedge![B,D]!ped-up!!ped! !>!!wedge!E,, !wedge![B,^^C]!wedge![A,C]!ped-up! | %95
!ped! !>!!wedge!D,, !wedge![^^F,A,][K:treble]!wedge![^^FA]!ped-up!!ped! !wedge![^^fa] z z!ped-up! | %96
[K:bass]!ped! !>!!wedge!G,, !wedge![=A,DF]!wedge![^B,DF]!ped-up!!ped! !>!!wedge!^B,, !wedge![A,DF]!wedge![B,DF]!ped-up! | %97
!ped! !>!C,[K:treble] [E=A][^B,A][CA][FA][EA]!ped-up! | %98
!ped! [DGB] z z!ped-up![K:bass]!ped! !arpeggio![D,C^^F] z z!ped-up! | %99
!ped! x[K:treble] x x!ped-up! z/ .G/.[=GA]/.[F=A]/.[^E^G]/.[=E=G]/ | %100
[K:bass] .B,,/D/.[F,B,]/D/.B,,/D/ .F,,/E/.[F,A,]/E/.F,,/E/ | %101
 B,,/.D/.F,/.B,,/.F,,/.B,,,/[K:treble] z/ (B/[B^^c]/).[A^c]/.[=A^B]/.[G=B]/ | %102
[K:bass] .D,/F/.[A,D]/F/.D,/F/ .A,,/G/.[A,^^C]/G/.A,,/G/ | %103
 D,/.F/.A,/.D,/.A,,/.D,,/[K:treble] z/ .d/.[=d^e]/.[c=e]/.[^B^d]/.[=B=d]/ | %104
[K:bass] .F,/A/.[CF]/A/.F,/A/ .C,/B/.[C^E]/B/.C,/B/ | %105
 !wedge!F,[K:treble] .C/.A/.f/.a/[K:bass] !wedge!B,,[K:treble] .B,/.G/.d/.g/ | %106
[K:bass] !wedge!C,[K:treble] .A,/.F/.c/.f/ !wedge!C .^e/.G/.C/.B/ | %107
 !wedge![FA][K:bass] [F,,F,]/[F,,F,]/[^^F,,^^F,]/[F,,F,]/!pp!!<(!!ped! [G,,G,]/[G,,G,]/[I:staff -1][G,G]/[G,G]/[I:staff +1][K:treble][Gg]/[Gg]/!<)! | %108
 z!ped-up! g/g/g/g/g/g/g/g/g/g/ | %109
 g[K:bass] [G,,G,]/[G,,G,]/[=G,,=G,]/[G,,G,]/!pp!!<(!!ped! [F,,F,]/[F,,F,]/[I:staff -1][F,F]/[F,F]/[I:staff +1][K:treble][Ff]/[Ff]/!<)! | %110
 z!ped-up! f/f/f/f/f/f/f/f/f/f/ | %111
 f[K:bass] [^E,,^E,]/[E,,E,]/[=E,,=E,]/[E,,E,]/!pp!!<(!!ped! [D,,D,]/[D,,D,]/[I:staff -1][D,D]/[D,D]/[I:staff +1][K:treble][Dd]/[Dd]/!<)! | %112
 z!ped-up! [D^^F]/[DF]/[^EG]/[EG]/ [^F=A]/[FA]/[=E^^F]/[EF]/[^^C^E]/[CE]/ | %113
 D[K:bass] [A,,,A,,]/[A,,,A,,]/[^^C,,^^C,]/[C,,C,]/!pp!!<(!!ped! [D,,D,]/[D,,D,]/[I:staff -1][D,D]/[D,D]/[I:staff +1][K:treble][Dd]/[Dd]/!<)! | %114
 z!ped-up! [^^Fd]/[Fd]/[G^e]/[Ge]/ [=A^f]/[Af]/[^A^^f]/[Af]/[^^ce]/[ce]/ | %115
 [Ad]/[Ad]/[GB]/[GB]/[F=A]/[FA]/ [^^F^A]/[FA]/[EF]/[EF]/[^^C^E]/[CE]/ | %116
[K:bass] [A,D]/[A,D]/[G,B,]/[G,B,]/[F,=A,]/[F,A,]/ [^^F,^A,]/[F,A,]/[E,F,]/[E,F,]/[^^C,^E,]/[C,E,]/ | %117
 [A,,D,]/[A,,D,]/[G,,B,,]/[G,,B,,]/[F,,=A,,]/[F,,A,,]/ [^^F,,^A,,]/[F,,A,,]/[F,,A,,]/[F,,A,,]/[^^C,,B,,]/[C,,B,,]/ | %118
 [D,,A,,] x x4 | x/ x/ x/[K:treble] x/ x4 | %120
 x/ !stemless![Aa]/ x/ !stemless![^^c^^c']/ x/ !stemless![dd']/ x/ !stemless![cc']/ x/ !stemless![dd']/ x/ !stemless![cc']/ | %121
!ped! x/ !stemless![^c^c']/ x/ !stemless![Aa]/ x/ !stemless![^^F^^f]/ x/ !stemless![Dd]/ x/ !stemless![Cc]/ x/ !stemless![A,A]/ | %122
[K:bass] x/ !stemless![^^F,^^F]/ x/ !stemless![D,D]/ x/ !stemless![C,C]/ x/ !stemless![A,,A,]/ x/ !stemless![^^F,,F,]/ x/ !stemless![D,,D,]/ | %123
 z6 | z2!ped-up![K:treble]!ff!!ped! !wedge!!^!D!wedge!!^!d z z!ped-up! | %125
[K:bass]!ped! !>![G,,,G,,] [D,B,D]/[D,B,D]/[G,B,D]!ped-up!!ped! !>![B,,,B,,] [D,B,D]/[D,B,D]/[G,B,D]!ped-up! | %126
!ped! !>![D,,D,][K:treble] [^^F,D^^F]/[F,DF]/[A,DF]!ped-up![K:bass]!ped! !>![^^F,,^^F,][K:treble] [CDA]/[CDA]/[CDA]!ped-up! | %127
[K:bass]!ped! !>![G,,G,][K:treble] [B,DG]/[B,DG]/[B,D]!ped-up![K:bass]!ped! !>!E,, [A,^^C]/[A,C]/[A,C]!ped-up! | %128
!ped! !>!D,, [^^F,A,]/[F,A,]/[F,A,D]!ped-up![K:treble]!ped! [^^FAd] z z!ped-up! | %129
[K:bass]!ped! !>![G,,,G,,] [F,=A,D]/[F,A,D]/[F,A,D]!ped-up!!ped! !>![^B,,,^B,,][K:treble] [=A,D=A]/[A,DA]/[A,DA]!ped-up! | %130
[K:bass]!ped! !>![C,,C,] [E,=A,C]/[E,A,C]/[D,A,C]/[D,A,C]/[C,A,C]/[C,A,C]/[D,A,C]/[D,A,C]/[E,A,C]/[E,A,C]/!ped-up! | %131
!ped! [D,G,B,]/[^^C,^^C]/[^C,^C]/[^B,,^B,]/[=B,,=B,]/[A,,A,]/[=A,,=A,]/[G,,G,]/[^^F,,^^F,]/[^F,,^F,]/[^E,,^E,]/[=E,,=E,]/!ped-up! | %132
!ped! [D,,^^F,,A,,D,]/[^^C,,^^C,]/[^C,,^C,]/[^B,,,^B,,]/[=B,,,=B,,]/[A,,,A,,]/[=A,,,=A,,]/[G,,,G,,]/[^^F,,,F,,]/[^F,,,^F,,]/[E,,,E,,]/[D,,,D,,]/!ped-up! | %133
!ped! !^![G,,,G,,]!^![D,,D,]/!^![G,,G,]/!^![D,D]!ped-up!!ped! !^![G,,,G,,]!^![D,,D,]/!^![G,,G,]/!^![D,D]!ped-up! | %134
!ped! !^![G,,,G,,]!^![D,,D,]/!^![G,,G,]/!^![D,D]!ped-up!!ped! !^![G,,,G,,]!^![D,,D,]/!^![G,,G,]/!^![D,D]!ped-up! | %135
!ped! !^![G,,,G,,]!^![D,,D,]/!^![G,,G,]/!^![D,D]!ped-up!!ped! !^![G,,,G,,]!^![D,,D,]/!^![G,,G,]/!^![D,D]!ped-up! | %136
!ped! !^![G,,,G,,]!^![D,,D,]/!^![G,,G,]/!^![D,D]!ped-up!!ped! !^![G,,,G,,]!^![D,,D,]/!^![G,,G,]/!^![D,D]!ped-up! | %137
!ped! !^![G,,,G,,]!^![D,,D,]/!^![G,,G,]/!ped-up!!ped! !^![B,,D,B,] [A,,D,A,]/[B,,D,B,]/[C,D,C][B,,D,B,]/[A,,D,A,]/ | %138
 [B,,D,B,]/[A,,D,A,]/ [G,,D,G,]!ped-up!!ped! !>!!wedge![G,,,D,,G,,] [A,,D,A,]/[B,,D,B,]/[C,D,C][B,,D,B,]/[A,,D,A,]/ | %139
 [B,,D,B,]/[A,,D,A,]/ [G,,D,G,]!ped-up!!ped! !>!!wedge![G,,,D,,G,,] [B,,D,B,]/[A,,D,A,]/ [G,,D,G,]!ped-up!!ped! !>!!wedge![G,,,D,,G,,] | %140
 [B,,D,B,]/[A,,D,A,]/ [G,,D,G,]!ped-up!!ped! !>!!wedge![G,,,D,,G,,] [B,,D,B,]/[A,,D,A,]/ [G,,D,G,]!ped-up!!ped! !>![G,,,D,,G,,]- | %141
 [G,,,D,,G,,] [G,,D,G,][G,DG][K:treble][Gdg][K:bass][G,DG][G,,D,G,] | %142
!ped! [G,,,D,,G,,]!ped-up! z z [G,,D,G,] z z |[K:treble] [B,DGB]6 |] %144
V:3
 x4!8va(! x2 | x6 | x6 | x2 d d' d' c' | b b a g ^^f g | %5
 .a/.d''/.d/.d''/!8va)!.d/.d'/ .e/.d'/.d/.d'/.c/.d'/ | %6
 .B/.d'/.B/.d'/.A/.d'/ .G/.d'/.^^F/.d'/.G/.d'/ | .A/.d'/ .D/.d/.d/.d'/!8va(! d' d' c' | %8
 b b a g ^^f g | .a/.d''/.d/.d''/!8va)! .d/.d'/ .e/.d'/.d/.d'/.c/.d'/ |!8va(! d x d' d x d'!8va)! | %11
 x2!8va(! x4 | b b a g ^^f g |{/^^fg} .a/.d''/.d/.d''/.d/.d'/!8va)!{/^f} .e/.d'/.d/.d'/.c/.d'/ | %14
{/c} .B/.d'/.B/.d'/.A/.d'/{/A} .G/.d'/.^^F/.d'/.G/.d'/ | .A/.d'/ .D/.d/.d/.d'/!8va(! d' d' c' | %16
 b b a g ^^f g |{/^^fg} .a/.d''/.d/.d''/.d/.d'/{/^f} .e/.g'/.d/.g'/.c/.g'/ | d x d' d x d'!8va)! | %19
 x6 || x6 | x6 | x6 | x6 | x6 | x6 |!8va(! x c'/[a'c'']/ x2 b/[d'b']/ x | %27
 x a/[c'a']/ x2 g/[bg']/ x | .f!8va)! x3!8va(! g' g' | g' f'' e'' d'' c'' d'' | %30
 e'' c''!8va)! x2!8va(! f' f' | f' e'' d'' c'' b' c'' | d'' b'!8va)! x4 | %33
 x3 .e'/.d'/.c'/.b/.a/.g/ | .^^f/.a/.b/.a/ x!8va(! x3 | x3 .e''/.d''/.c''/.b'/.=a'/.g'/ | x6 | x6 | %38
 x6 | x6 | x6 | x6 | x6 | x6 | x6 | x6 | x6 | x2 d edc | d x d' d x d'!8va)! | x2!8va(! x4 | x6 | %51
 x3!8va)! x3 | x6 | x3!8va(! x3 | x6 | x6 | x6 | x6 | x6!8va)! | x2 || B/A/.=A/.G/.=G/.F/.^E/.=E/ | %61
 x F B c f!8va(! c' | d'b/!8va)! x/ (d/^^c/).^c/.^B/.=B/.A/.^^G/.^G/ | x A d ^e!8va(! a ^e' | %64
 f'd'/!8va)! x/ (f/^e/).=e/.d/.^^c/.^c/.^B/.=B/ | x c f!8va(! g c' x | %66
 !^!a'/!^!=a'/!^!g'/!^!^^f'/!^!^f' !^!g'/!^!^^f'/!^!^f'/!^!^e'/!^!d' | %67
 !^!f'/!^!^e'/!^!d'/!^!=d'/!^!c' !^!e'/!^!^d'/!^!=d'/!^!c'/!^!b | x f ^^f g x2 | %69
 x f'' e'' d'' c'' d'' | e'' c''/ x/ =g f x2 | x e'' d'' c'' b' c'' | d'' b'/ x/ ^^c d x2 | x6 | %74
 x!8va)! A ^^c d x2 |!8va(! x6 | x6 | x3 | x9!8va)! | x9 | x12 |!8va(! x12 | x6 | %83
 x4 d'/ x/ d'/ x/ | d'/ x/ d'/ x/ d'/ x/ d'/ x/ d'/ x/ d'/ x/ | %85
 d'/ x/ d'/ x/ d'/ x/ d'/ x/ d'/ x/ d'/ x/ | d'/ x/ d'/ x/ d'/ x/ d'/ x/ d'/ x/ d'/ x/ | %87
 d'/ x/ d'/ x/ d'/ x/ d'/ x/ d'/ x/ d'/ x/ | x6 | x6 | x6!8va)! | %91
 x2!8va(! !wedge!d/4d'/4e'/4d'/4 !wedge!d'/4d''/4e''/4d''/4 !wedge!d'/4d''/4e''/4d''/4 !wedge!c'/4c''/4d''/4c''/4 | %92
 !wedge!b/4b'/4c''/4b'/4 !wedge!b/4b'/4c''/4b'/4 !wedge!a/4a'/4b'/4a'/4 !wedge!g/4g'/4a'/4g'/4 !wedge!^^f/4^^f'/4g'/4f'/4 !wedge!g/4g'/4a'/4g'/4 | %93
 !wedge!a/4a'/4b'/4a'/4 !wedge!d/4d'/4e'/4d'/4 !wedge!d/4d'/4e'/4d'/4!8va)! !wedge!e/4e'/4f'/4e'/4 !wedge!d/4d'/4e'/4d'/4 !wedge!c/4c'/4d'/4c'/4 | %94
 !wedge!B/4b/4c'/4b/4 !wedge!B/4b/4c'/4b/4 !wedge!A/4a/4b/4a/4 !wedge!G/4g/4a/4g/4 !wedge!^^F/4^^f/4g/4f/4 !wedge!G/4g/4a/4g/4 | %95
 !wedge!A/4a/4b/4a/4 !wedge!D/4d/4e/4d/4 !wedge!d/4d'/4e'/4d'/4!8va(! !wedge!d'/4d''/4e''/4d''/4 !wedge!d'/4d''/4e''/4d''/4 !wedge!c'/4c''/4d''/4c''/4 | %96
 !wedge!^b/4^b'/4c''/4b'/4 !wedge!b/4b'/4c''/4b'/4 !wedge!=a/4=a'/4=b'/4a'/4 !wedge!g/4g'/4a'/4g'/4 !wedge!g/4g'/4a'/4g'/4 !wedge!f/4f'/4g'/4f'/4 | %97
 !wedge!e/4e'/4f'/4e'/4 !wedge!c/4c'/4d'/4c'/4 !wedge!d/4d'/4e'/4d'/4 !wedge!e/4e'/4f'/4e'/4 !wedge!d/4!>(!d'/4e'/4d'/4 !wedge!c/4c'/4d'/4c'/4!>)! | %98
 x153/32!8va)! x79/64 | x3/2!8va(! x3/2!8va)! x3 | b/ x/ f/ x/ b/ x/ c'/ x/ f/ x/ c'/ x/ | %101
 d'/ x11/2 | d'/ x/ a/ x/ d'/ x/ ^e'/ x/ a/ x/ e'/ x/ | f'/ x3/2!8va(! x!8va)! x3 | %104
 f'/ x/ c'/ x/ f'/ x/ g'/ x/ c'/ x/ g'/ x/ |!8va(! x6 | x6 | x!8va)! x5 |!8va(! x6 | x!8va)! x5 | %110
 x!8va(! x5 | x!8va)! x3[K:bass] x2 |[K:treble] x6 | x4[K:bass] x2 |[K:treble] x!8va(! x5!8va)! | %115
 x6 | x6 |[K:bass] x6 | x3[K:treble] x3 | x6 |!8va(! x6 | x6 | x6 | x6 | x6 | x6!8va)! | x6 | x6 | %128
 x3!8va(! x3 | x3!8va)! x3 | x6 | x6 |!8va(! x6!8va)! | x6 | x6 | x2!8va(! x4 | x6 | x2!8va)! x4 | %138
 x6 | x6 | x2!8va(! x!8va)! x2!8va(! x | x6 | x!8va)! x5 | x6 |] %144
V:4
 x6 | x6 | x6 | x6 | x6 | x6 | x6 | x6 | x6 | x6 | x6 | x6 |[K:bass] x6 | x3[K:treble] x3 | x6 | %15
[K:bass] x6 | x6 | x3[K:treble] x3 | x3[K:bass] x3 | x3[K:treble] x3 || x6 |[K:bass] x6 | %22
 x2[K:treble] x4 | x6 | x2[K:treble] x4 | x6 | x !arpeggio!F x2 !arpeggio!B, x | %27
 x !arpeggio!C x2 !arpeggio!C x | !arpeggio!F, x5 | x3 !arpeggio!G, x2 | !arpeggio!C x5 | %31
 x3 !arpeggio!F, x2 | !arpeggio!B, x5 | x6 | x6 | x6 | x6 | x6 | x6 | x6 | x6 | x6 | G, x2 B, x2 | %43
 !arpeggio!^^F x2 ^^F, x2 |[K:bass] G, x2 !arpeggio!E, x2 | ^^F,2 x3/4[K:treble] x13/4 | %46
 G, x2 B, x2 | ^^F x5 | x6 | x6 |[K:bass] x6 | x3[K:treble] x3 | x6 |[K:bass] x6 | x6 | %55
 x[K:treble] x5 | x6 |[K:bass] x6 | x6 | x2 ||[K:treble] x4 | x[K:bass] x5 | x2[K:treble] x4 | x6 | %64
[K:bass] x2[K:treble] x4 | x6 | x6 | x6 | x6 | x3 G x2 | c x5 | x3 F x2 | B x5 | x6 | x6 | x6 | %76
 x6 |[K:bass] x3 | x9 | x9 | ^^F,, x11 |!8va(! x12!8va)! | x6 | x2[K:treble] x4 | G x2 B x2 | %85
 ^^f x2 [^^FA] x2 | x3 E x2 | ^^F x5 | G, x2 B, x2 | ^^F x2 B,^B,C | x6 | x6 |[K:bass] x6 | %93
 x4[K:treble] x2 |[K:bass] x6 | x2[K:treble] x4 |[K:bass] x6 | x[K:treble] x5 | %98
 x121/40[K:bass] x3 | x[K:treble] x5 |[K:bass] B,,/ x/ B,/ x/ B,,/ x/ F,,/ x/ A,/ x/ F,,/ x/ | %101
 B,,/ x5/2[K:treble] x3 |[K:bass] D,/ x/ D/ x/ D,/ x/ A,,/ x/ ^^C/ x/ A,,/ x/ | %103
 D,/ x5/2[K:treble] x3 |[K:bass] F,/ x/ F/ x/ F,/ x/ C,/ x/ ^E/ x/ C,/ x/ | %105
 x[K:treble] x2[K:bass] x[K:treble] x2 |[K:bass] x[K:treble] x5 | x[K:bass] x4[K:treble] x | %108
 x d c ^B A B | c[K:bass] x4[K:treble] x | x c B A G A | B[K:bass] x4[K:treble] x | x6 | %113
 x[K:bass] x4[K:treble] x | x6 | x6 |[K:bass] x6 | x6 | x6 | x3/2[K:treble] x9/2 | x6 | x6 | %122
[K:bass] x6 | x6 | x2[K:treble] x4 |[K:bass] x6 | x[K:treble] x2[K:bass] x[K:treble] x2 | %127
[K:bass] x[K:treble] x2[K:bass] x3 | x3[K:treble] x3 |[K:bass] x4[K:treble] x2 |[K:bass] x6 | x6 | %132
 x6 | x6 | x6 | x6 | x6 | x6 | x6 | x6 | x6 | x3[K:treble] x[K:bass] x2 | x6 |[K:treble] x6 |] %144

